src/assets/images/001-notes-1.svg

<svg width="48" height="48" viewBox="0 0 48 48" fill="none" xmlns="http://www.w3.org/2000/svg">
<g clip-path="url(#clip0_1_8636)">
<path d="M33.3201 48.0036C34.4045 48.0007 35.3535 47.2744 35.6394 46.2284L37.851 37.9713L46.2268 35.7322C47.503 35.3851 48.2586 34.0723 47.9185 32.7946L43.5758 16.6088L43.9196 15.3292C44.2304 14.1507 43.608 12.9265 42.4727 12.4828L40.5174 5.18339C40.1674 3.90825 38.8578 3.15152 37.5783 3.48467L23.2944 7.31631L11.3169 4.10522C10.826 3.97049 10.3047 3.99868 9.83128 4.18539L6.83911 1.19835C5.8305 0.180583 4.35473 -0.219934 2.97013 0.148732C1.58552 0.517399 0.504052 1.5985 0.13502 2.98311C-0.234013 4.36771 0.165772 5.84384 1.18318 6.85246L6.63702 12.3063L0.102803 36.6991C-0.239138 37.9782 0.517232 39.2929 1.79493 39.6407L32.6974 47.9205C32.9002 47.9758 33.1096 48.004 33.3201 48.0036ZM46.371 33.2079C46.4841 33.6322 46.2341 34.0686 45.8109 34.1854L38.3299 36.1847L42.7455 19.7009L46.371 33.2079ZM37.9876 5.03146C38.1937 4.97508 38.4137 5.00364 38.5986 5.11054C38.7835 5.21707 38.9179 5.39354 38.9721 5.60002L40.6781 11.9728L26.3839 8.14334L37.9876 5.03146ZM24.2316 24.2497L20.1939 22.9039L22.8858 20.2094L24.2316 24.2468V24.2497ZM20.9766 19.8609L14.1905 13.074C13.8782 12.7617 13.3715 12.7617 13.0592 13.0744C12.7469 13.3867 12.7473 13.8934 13.06 14.2057L19.8464 20.9907L18.7159 22.1227L7.40475 10.8115L8.53564 9.68061L10.7971 11.9431C10.9995 12.1452 11.2939 12.2243 11.5703 12.15C11.8463 12.076 12.062 11.8604 12.1359 11.5844C12.2099 11.3083 12.1311 11.0136 11.9291 10.8115L9.66727 8.54972L10.7982 7.41809L22.1075 18.7292L20.9766 19.8609ZM5.14222 8.54972L8.53564 5.1563L9.66654 6.2872L6.27385 9.68061L5.14222 8.54972ZM1.61188 4.02541C1.61188 3.05487 2.19655 2.17951 3.09314 1.80828C3.99009 1.43705 5.02214 1.64244 5.70822 2.32888L7.40475 4.02541L4.01133 7.41882L2.31407 5.72157C1.86303 5.27272 1.61005 4.66206 1.61188 4.02541ZM1.64886 37.119L7.94438 13.6137L18.1495 23.8188C18.233 23.9005 18.3333 23.9623 18.4439 24.0004C18.4501 24.0004 18.4549 24.0092 18.4622 24.0114L23.7304 25.7709C23.8948 25.8251 24.0672 25.8518 24.2404 25.8511C24.5417 25.85 24.8364 25.7632 25.0898 25.6006L34.287 28.0704C34.3548 28.0891 34.4247 28.0986 34.495 28.0982C34.8966 28.0982 35.2356 27.8006 35.2876 27.4026C35.3399 27.0047 35.0892 26.6298 34.7015 26.5262L25.8242 24.1428C25.8161 24.007 25.7916 23.8726 25.7506 23.7427L23.9911 18.4741C23.9911 18.4667 23.9823 18.462 23.979 18.4547C23.9409 18.3452 23.8791 18.2452 23.7981 18.1621L11.437 5.79589L41.805 13.9303C42.0104 13.9853 42.1854 14.1193 42.2915 14.3034C42.3977 14.4872 42.4262 14.7058 42.3713 14.9111L34.0952 45.8099C34.0406 46.0153 33.9063 46.1907 33.7221 46.2969C33.538 46.403 33.319 46.4316 33.114 46.3763L2.21486 38.0994C2.00984 38.0445 1.83484 37.9105 1.7283 37.7267C1.62213 37.5426 1.59358 37.324 1.64886 37.119Z" fill="#888888"/>
<path d="M36.9807 18.8252C37.3819 18.8248 37.7209 18.5272 37.7733 18.1292C37.8253 17.7316 37.5745 17.3564 37.1872 17.2527L25.812 14.2049C25.533 14.1218 25.2313 14.1969 25.0237 14.4008C24.8162 14.6044 24.7356 14.9049 24.8132 15.185C24.8908 15.4654 25.1149 15.6814 25.3975 15.7492L36.7735 18.7977C36.8412 18.816 36.9108 18.8252 36.9807 18.8252Z" fill="#888888"/>
<path d="M35.7378 23.4596C36.139 23.4593 36.4781 23.162 36.5304 22.764C36.5828 22.3661 36.332 21.9912 35.9443 21.8872L28.2103 19.8183C27.9325 19.7393 27.6337 19.8158 27.4283 20.0193C27.2229 20.2225 27.1435 20.5209 27.22 20.7995C27.2965 21.0781 27.5173 21.2937 27.7977 21.3633L35.5317 23.4325C35.5987 23.4505 35.6682 23.4596 35.7378 23.4596Z" fill="#888888"/>
<path d="M11.0596 25.155L8.74038 24.5337C8.46214 24.4524 8.16157 24.5279 7.95509 24.7314C7.74861 24.9346 7.66806 25.2337 7.74494 25.5134C7.82183 25.7928 8.04369 26.0088 8.32522 26.0779L10.6445 26.7003C10.7126 26.7183 10.7821 26.7274 10.8524 26.7274C11.2541 26.7278 11.5934 26.4301 11.6458 26.0322C11.6981 25.6342 11.4474 25.259 11.0596 25.155Z" fill="#888888"/>
<path d="M34.0274 32.1363C34.1416 31.7098 33.8883 31.2719 33.4621 31.1573L15.6936 26.3973C15.2814 26.3167 14.8772 26.5693 14.7681 26.975C14.6594 27.3806 14.8831 27.8016 15.2803 27.9382L33.0477 32.6986C33.1154 32.7173 33.185 32.7265 33.2549 32.7265C33.6163 32.7268 33.9329 32.4848 34.0274 32.1363Z" fill="#888888"/>
<path d="M9.81695 29.79L7.49768 29.1683C7.0719 29.0567 6.63587 29.31 6.52202 29.7351C6.40816 30.1605 6.65967 30.598 7.08435 30.7136L9.40362 31.3342C9.47098 31.3529 9.54054 31.3624 9.61083 31.362C10.0121 31.3624 10.3515 31.0647 10.4038 30.6668C10.4565 30.2688 10.2058 29.8936 9.81768 29.79H9.81695Z" fill="#888888"/>
<path d="M32.2195 35.7929L14.4521 31.0317C14.1731 30.949 13.8715 31.0241 13.6639 31.2276C13.4563 31.4315 13.3757 31.7317 13.4534 32.0122C13.531 32.2922 13.755 32.5082 14.0377 32.5763L31.8054 37.3372C31.8731 37.3558 31.9431 37.3653 32.0134 37.3653C32.4146 37.365 32.7536 37.0673 32.806 36.6694C32.858 36.2714 32.6072 35.8965 32.2195 35.7929Z" fill="#888888"/>
</g>
<defs>
<clipPath id="clip0_1_8636">
<rect width="48" height="48" fill="white"/>
</clipPath>
</defs>
</svg>

<svg xmlns="http://www.w3.org/2000/svg" width="48" height="48" fill="none" viewBox="0 0 48 48"><g fill="#888" clip-path="url(#a)"><path d="M33.32 48.004a2.41 2.41 0 0 0 2.32-1.776l2.211-8.257 8.376-2.239a2.403 2.403 0 0 0 1.692-2.937l-4.343-16.186.344-1.28a2.4 2.4 0 0 0-1.447-2.846l-1.956-7.3a2.416 2.416 0 0 0-2.939-1.698L23.294 7.316l-11.977-3.21a2.35 2.35 0 0 0-1.486.08L6.84 1.197a3.998 3.998 0 1 0-5.656 5.654l5.454 5.454L.103 36.7a2.405 2.405 0 0 0 1.692 2.942l30.902 8.28q.306.083.623.083m13.051-14.796a.8.8 0 0 1-.56.977l-7.481 2L42.746 19.7zM37.988 5.03a.8.8 0 0 1 .984.569l1.706 6.373-14.294-3.83zM24.232 24.25l-4.038-1.346 2.692-2.695 1.346 4.038zm-3.255-4.39-6.786-6.786a.8.8 0 1 0-1.131 1.132l6.786 6.785-1.13 1.132L7.405 10.812l1.13-1.131 2.262 2.262a.8.8 0 0 0 1.132-1.131L9.667 8.55l1.131-1.132 11.31 11.311zM5.142 8.55l3.394-3.394 1.13 1.131-3.392 3.394zm-3.53-4.525A2.4 2.4 0 0 1 5.708 2.33l1.697 1.696L4.01 7.42 2.314 5.722a2.38 2.38 0 0 1-.702-1.697m.037 33.094 6.295-23.505L18.15 23.819a.8.8 0 0 0 .294.181c.006 0 .01.01.018.011l5.268 1.76a1.6 1.6 0 0 0 1.36-.17l9.197 2.47a.8.8 0 1 0 .415-1.544l-8.878-2.384a1.7 1.7 0 0 0-.073-.4l-1.76-5.269c0-.007-.009-.012-.012-.02a.8.8 0 0 0-.18-.292L11.436 5.796l30.368 8.134a.8.8 0 0 1 .566.981L34.095 45.81a.8.8 0 0 1-.981.566L2.214 38.1a.8.8 0 0 1-.565-.98"/><path d="M36.98 18.825a.8.8 0 0 0 .207-1.572l-11.375-3.048a.8.8 0 1 0-.415 1.544l11.377 3.049a.8.8 0 0 0 .207.027M35.738 23.46a.8.8 0 0 0 .206-1.573l-7.734-2.069a.8.8 0 1 0-.412 1.545l7.734 2.07a.8.8 0 0 0 .206.027M11.06 25.155l-2.32-.621a.8.8 0 1 0-.415 1.544l2.32.622a.8.8 0 1 0 .415-1.545M34.027 32.136a.8.8 0 0 0-.565-.979l-17.768-4.76a.8.8 0 0 0-.414 1.541l17.768 4.76a.8.8 0 0 0 .98-.562M9.817 29.79l-2.32-.622a.8.8 0 0 0-.413 1.546l2.32.62a.8.8 0 1 0 .414-1.544zM32.22 35.793l-17.768-4.761a.8.8 0 1 0-.414 1.544l17.767 4.761a.8.8 0 1 0 .414-1.544"/></g><defs><clipPath id="a"><path fill="#fff" d="M0 0h48v48H0z"/></clipPath></defs></svg>
